icons/api-dark.svg

<svg width="256" height="256" viewBox="0 0 256 256" fill="none" xmlns="http://www.w3.org/2000/svg">
<path d="M196 0H60C26.8629 0 0 26.8629 0 60V196C0 229.137 26.8629 256 60 256H196C229.137 256 256 229.137 256 196V60C256 26.8629 229.137 0 196 0Z" fill="#282828"/>
<path d="M19.3075 133.932V128.222C22.584 128.222 24.8568 127.568 26.1257 126.261C27.3947 124.955 28.0291 122.843 28.0291 119.926V113.648C28.0291 110.144 28.5121 107.341 29.478 105.239C30.4628 103.117 31.8265 101.517 33.5689 100.438C35.3303 99.358 37.4136 98.6383 39.8189 98.2784C42.2242 97.9186 44.8568 97.7386 47.7166 97.7386V106.773C45.4818 106.773 43.7772 107.066 42.603 107.653C41.4477 108.222 40.6617 109.112 40.245 110.324C39.8284 111.517 39.62 113.032 39.62 114.869V123.165C39.62 124.604 39.3549 125.977 38.8246 127.284C38.2943 128.572 37.3094 129.718 35.87 130.722C34.4306 131.706 32.3757 132.492 29.7053 133.08C27.0348 133.648 23.5689 133.932 19.3075 133.932ZM47.7166 169.642C44.8568 169.642 42.2242 169.462 39.8189 169.102C37.4136 168.742 35.3303 168.023 33.5689 166.943C31.8265 165.864 30.4628 164.263 29.478 162.142C28.5121 160.04 28.0291 157.237 28.0291 153.733V147.426C28.0291 144.509 27.3947 142.398 26.1257 141.091C24.8568 139.784 22.584 139.131 19.3075 139.131V133.42C23.5689 133.42 27.0348 133.714 29.7053 134.301C32.3757 134.869 34.4306 135.655 35.87 136.659C37.3094 137.644 38.2943 138.79 38.8246 140.097C39.3549 141.384 39.62 142.758 39.62 144.216V152.511C39.62 154.33 39.8284 155.835 40.245 157.028C40.6617 158.241 41.4477 159.131 42.603 159.699C43.7772 160.286 45.4818 160.58 47.7166 160.58V169.642ZM19.3075 139.131V128.222H29.5064V139.131H19.3075ZM85.3587 157.824C82.5746 157.824 80.0935 157.341 77.9155 156.375C75.7375 155.39 74.014 153.941 72.745 152.028C71.495 150.097 70.87 147.691 70.87 144.812C70.87 142.388 71.3151 140.352 72.2053 138.705C73.0954 137.057 74.3075 135.731 75.8416 134.727C77.3757 133.723 79.1181 132.966 81.0689 132.455C83.0386 131.943 85.103 131.583 87.2621 131.375C89.8 131.11 91.8454 130.864 93.3984 130.636C94.9515 130.39 96.0784 130.03 96.7791 129.557C97.4799 129.083 97.8303 128.383 97.8303 127.455V127.284C97.8303 125.485 97.2621 124.093 96.1257 123.108C95.0083 122.123 93.4174 121.631 91.353 121.631C89.175 121.631 87.442 122.114 86.1541 123.08C84.8662 124.027 84.014 125.22 83.5973 126.659L72.4041 125.75C72.9723 123.098 74.0897 120.807 75.7564 118.875C77.4231 116.924 79.5727 115.428 82.2053 114.386C84.8568 113.326 87.925 112.795 91.4098 112.795C93.834 112.795 96.1541 113.08 98.37 113.648C100.605 114.216 102.584 115.097 104.308 116.29C106.05 117.483 107.423 119.017 108.427 120.892C109.431 122.748 109.933 124.973 109.933 127.568V157H98.4553V150.949H98.1143C97.4136 152.312 96.4761 153.515 95.3018 154.557C94.1276 155.58 92.7166 156.384 91.0689 156.972C89.4212 157.54 87.5178 157.824 85.3587 157.824ZM88.8246 149.472C90.6049 149.472 92.1768 149.121 93.5405 148.42C94.9041 147.701 95.9742 146.735 96.7507 145.523C97.5272 144.311 97.9155 142.937 97.9155 141.403V136.773C97.5367 137.019 97.0159 137.246 96.353 137.455C95.709 137.644 94.9799 137.824 94.1655 137.994C93.3511 138.146 92.5367 138.288 91.7223 138.42C90.9079 138.534 90.1693 138.638 89.5064 138.733C88.0859 138.941 86.8454 139.273 85.7848 139.727C84.7242 140.182 83.9003 140.797 83.3132 141.574C82.7261 142.331 82.4325 143.278 82.4325 144.415C82.4325 146.062 83.0291 147.322 84.2223 148.193C85.4344 149.045 86.9685 149.472 88.8246 149.472ZM119.322 173.364V113.364H131.254V120.693H131.793C132.324 119.519 133.091 118.326 134.094 117.114C135.117 115.883 136.443 114.86 138.072 114.045C139.719 113.212 141.765 112.795 144.208 112.795C147.39 112.795 150.326 113.629 153.015 115.295C155.704 116.943 157.854 119.434 159.464 122.767C161.074 126.081 161.879 130.239 161.879 135.239C161.879 140.106 161.093 144.216 159.521 147.568C157.968 150.902 155.846 153.43 153.157 155.153C150.487 156.858 147.494 157.71 144.18 157.71C141.831 157.71 139.833 157.322 138.185 156.545C136.557 155.769 135.221 154.794 134.18 153.619C133.138 152.426 132.343 151.223 131.793 150.011H131.424V173.364H119.322ZM131.168 135.182C131.168 137.777 131.528 140.04 132.248 141.972C132.968 143.903 134.009 145.409 135.373 146.489C136.737 147.549 138.394 148.08 140.344 148.08C142.314 148.08 143.981 147.54 145.344 146.46C146.708 145.362 147.74 143.847 148.441 141.915C149.161 139.964 149.521 137.72 149.521 135.182C149.521 132.663 149.17 130.447 148.469 128.534C147.769 126.621 146.737 125.125 145.373 124.045C144.009 122.966 142.333 122.426 140.344 122.426C138.375 122.426 136.708 122.947 135.344 123.989C134 125.03 132.968 126.508 132.248 128.42C131.528 130.333 131.168 132.587 131.168 135.182ZM169.947 157V113.364H182.049V157H169.947ZM176.026 107.739C174.227 107.739 172.683 107.142 171.396 105.949C170.127 104.737 169.492 103.288 169.492 101.602C169.492 99.9356 170.127 98.5057 171.396 97.3125C172.683 96.1004 174.227 95.4943 176.026 95.4943C177.826 95.4943 179.36 96.1004 180.629 97.3125C181.916 98.5057 182.56 99.9356 182.56 101.602C182.56 103.288 181.916 104.737 180.629 105.949C179.36 107.142 177.826 107.739 176.026 107.739ZM235.685 133.42V139.131C232.428 139.131 230.155 139.784 228.867 141.091C227.598 142.398 226.964 144.509 226.964 147.426V153.733C226.964 157.237 226.471 160.04 225.487 162.142C224.521 164.263 223.157 165.864 221.396 166.943C219.653 168.023 217.579 168.742 215.174 169.102C212.788 169.462 210.155 169.642 207.276 169.642V160.58C209.511 160.58 211.206 160.286 212.362 159.699C213.536 159.131 214.331 158.241 214.748 157.028C215.165 155.835 215.373 154.33 215.373 152.511V144.216C215.373 142.758 215.638 141.384 216.168 140.097C216.699 138.79 217.683 137.644 219.123 136.659C220.562 135.655 222.617 134.869 225.288 134.301C227.958 133.714 231.424 133.42 235.685 133.42ZM207.276 97.7386C210.155 97.7386 212.788 97.9186 215.174 98.2784C217.579 98.6383 219.653 99.358 221.396 100.438C223.157 101.517 224.521 103.117 225.487 105.239C226.471 107.341 226.964 110.144 226.964 113.648V119.926C226.964 122.843 227.598 124.955 228.867 126.261C230.155 127.568 232.428 128.222 235.685 128.222V133.932C231.424 133.932 227.958 133.648 225.288 133.08C222.617 132.492 220.562 131.706 219.123 130.722C217.683 129.718 216.699 128.572 216.168 127.284C215.638 125.977 215.373 124.604 215.373 123.165V114.869C215.373 113.032 215.165 111.517 214.748 110.324C214.331 109.112 213.536 108.222 212.362 107.653C211.206 107.066 209.511 106.773 207.276 106.773V97.7386ZM235.685 128.222V139.131H225.487V128.222H235.685Z" fill="white"/>
</svg>

<svg xmlns="http://www.w3.org/2000/svg" width="256" height="256" fill="none"><path fill="#282828" d="M196 0H60C26.863 0 0 26.863 0 60v136c0 33.137 26.863 60 60 60h136c33.137 0 60-26.863 60-60V60c0-33.137-26.863-60-60-60"/><path fill="#fff" d="M19.308 133.932v-5.71q4.914 0 6.818-1.961 1.903-1.96 1.903-6.335v-6.278q0-5.256 1.449-8.409 1.477-3.183 4.09-4.801 2.644-1.62 6.25-2.16 3.609-.54 7.899-.54v9.035q-3.353 0-5.114.88-1.733.853-2.358 2.671-.625 1.79-.625 4.545v8.296q0 2.159-.795 4.119-.796 1.932-2.955 3.438-2.16 1.476-6.165 2.358-4.005.852-10.397.852m28.409 35.71q-4.29 0-7.898-.54t-6.25-2.159q-2.614-1.619-4.091-4.801-1.449-3.153-1.449-8.409v-6.307q0-4.375-1.903-6.335t-6.818-1.96v-5.711q6.391 0 10.397.881 4.006.852 6.165 2.358 2.16 1.478 2.955 3.438.795 1.931.795 4.119v8.295q0 2.728.625 4.517.625 1.82 2.358 2.671 1.761.88 5.114.881zm-28.41-30.511v-10.909h10.2v10.909zm66.052 18.693q-4.176 0-7.443-1.449-3.267-1.478-5.171-4.347-1.875-2.897-1.875-7.216 0-3.636 1.335-6.107a10.8 10.8 0 0 1 3.637-3.978q2.3-1.506 5.227-2.272a40 40 0 0 1 6.193-1.08q3.807-.397 6.136-.739 2.33-.37 3.381-1.079 1.05-.71 1.051-2.102v-.171q0-2.699-1.704-4.176-1.677-1.477-4.773-1.477-3.267 0-5.199 1.449-1.932 1.42-2.557 3.579l-11.193-.909q.852-3.978 3.352-6.875 2.5-2.926 6.45-4.489 3.976-1.59 9.204-1.591 3.636 0 6.96.853 3.352.852 5.938 2.642a12.84 12.84 0 0 1 4.119 4.602q1.506 2.784 1.506 6.676V157H98.455v-6.051h-.34a12.3 12.3 0 0 1-2.813 3.608q-1.761 1.534-4.233 2.415-2.472.852-5.71.852m3.466-8.352q2.67 0 4.715-1.052 2.046-1.079 3.21-2.897 1.165-1.819 1.165-4.12v-4.63q-.568.369-1.562.682-.966.284-2.187.539-1.223.228-2.444.426-1.221.17-2.216.313-2.13.313-3.721.994-1.59.682-2.472 1.847-.88 1.136-.88 2.841 0 2.471 1.79 3.778 1.817 1.279 4.602 1.279m30.497 23.892v-60h11.932v7.329h.539q.797-1.761 2.301-3.579 1.534-1.847 3.978-3.069 2.471-1.25 6.136-1.25 4.773 0 8.807 2.5 4.034 2.472 6.449 7.472 2.415 4.971 2.415 12.472 0 7.3-2.358 12.329-2.33 5-6.364 7.585-4.006 2.557-8.977 2.557-3.523 0-5.995-1.165-2.443-1.164-4.005-2.926-1.562-1.79-2.387-3.608h-.369v23.353zm11.846-38.182q0 3.892 1.08 6.79 1.08 2.897 3.125 4.517 2.046 1.59 4.971 1.591 2.955 0 5-1.62 2.046-1.647 3.097-4.545 1.08-2.926 1.08-6.733 0-3.779-1.052-6.648-1.05-2.87-3.096-4.489t-5.029-1.619q-2.954 0-5 1.563-2.016 1.562-3.096 4.431-1.08 2.87-1.08 6.762M169.947 157v-43.636h12.102V157zm6.079-49.261q-2.699 0-4.63-1.79-1.904-1.818-1.904-4.347 0-2.499 1.904-4.29 1.931-1.818 4.63-1.818 2.7 0 4.603 1.819 1.93 1.79 1.931 4.289 0 2.529-1.931 4.347-1.903 1.79-4.603 1.79m59.659 25.681v5.711q-4.886 0-6.818 1.96-1.903 1.96-1.903 6.335v6.307q0 5.256-1.477 8.409-1.45 3.182-4.091 4.801-2.614 1.62-6.222 2.159-3.58.54-7.898.54v-9.062q3.352 0 5.086-.881 1.76-.852 2.386-2.671.625-1.789.625-4.517v-8.295q0-2.188.795-4.119.796-1.96 2.955-3.438 2.159-1.506 6.165-2.358 4.005-.88 10.397-.881m-28.409-35.681q4.319 0 7.898.54 3.608.54 6.222 2.159 2.642 1.618 4.091 4.801 1.477 3.153 1.477 8.409v6.278q0 4.376 1.903 6.335 1.932 1.96 6.818 1.961v5.71q-6.392 0-10.397-.852-4.006-.882-6.165-2.358-2.16-1.506-2.955-3.438a10.9 10.9 0 0 1-.795-4.119v-8.296q0-2.756-.625-4.545-.625-1.818-2.386-2.671-1.734-.88-5.086-.88zm28.409 30.483v10.909h-10.198v-10.909z"/></svg>
